X:1
T:Title
%%score ( 1 2 ) ( 3 4 )
L:1/8
Q:1/4=100
M:3/4
K:Ab
V:1 treble nm="Grand Piano"
V:2 treble 
V:3 bass nm="Grand Piano"
V:4 bass 
V:1
 [Ec]2 [DB]2 [CA]2 | [CE]4 [A,C]2 | [CE]4 [CA]2 | [DG]6 | [Fd]2 [Ec]2 [DB]2 | [Fd]4 [EG]2 | %6
w: Walter~J.~Main * *||||||
 [DF]4 [DG]2 | [CE]6 | [Ec]2 [DB]2 [CA]2 | [Ec]4 [_GA]2 | [FB]4 [Fc]2 | [Fd]6 | [Fd]2 [Fc]2 [FB]2 | %13
w: |||||||
 [F_c]4 [Fc]2 | [Ec]4 [EB]2 | [EA]6 | [EB]2 [GB]2 [FB]2 | B6 | c2 z2 z2 | [Ec]4 [Ec]2 | %20
w: |||||||
 [_Ge]4 [Fd]2 | [Ec]4 [Ac]2 | [Ac]4 [GB]2 | A6 | [EB]2 [GB]2 [FB]2 | B6 | c2 z2 z2 | [Ec]4 [Ec]2 | %28
w: ||||||||
 [_Ge]4 [Fd]2 | [Ec]4 [Ac]2 | [Ac]4 [GB]2 | A6 |] %32
w: ||||
V:2
 x6 | x6 | x6 | x6 | x6 | x6 | x6 | x6 | x6 | x6 | x6 | x6 | x6 | x6 | x6 | x6 | x6 | E2 =D2 _D2 | %18
 C2- [CA]2 [Fd]2 | x6 | x6 | x6 | x6 | x6 | x6 | E2 =D2 _D2 | C2- [CA]2 [Fd]2 | x6 | x6 | x6 | x6 | %31
 x6 |] %32
V:3
 [A,,A,]2 [A,,A,]2 [A,,E,]2 | [A,,A,]4 [A,,E,]2 | [A,,A,]4 [A,,A,]2 | [E,B,]6 | %4
 [E,G,]2 [E,G,]2 [E,G,]2 | [E,G,]4 [E,B,]2 | [A,,A,]4 [A,,E,]2 | [A,,A,]6 | %8
 [A,,A,]2 [A,,A,]2 [A,,E,]2 | [A,,A,]4 [C,A,]2 | [D,A,]4 [C,=A,]2 | [B,,B,]6 | %12
 [B,,B,]2 [C,=A,]2 [D,B,]2 | [=D,A,]4 [D,A,]2 | E,2- [E,E]2 [E,D]2 | [A,C]6 | %16
 [E,G,]2 [E,B,]2 [E,A,]2 | [E,G,]6 | [A,,A,]2 [A,,E,]2 [A,,A,]2 | [A,,A,]4 [A,,A,]2 | %20
 [C,A,]4 [D,A,]2 | [E,A,]4 [E,E]2 | =D2- [B,,D]2 [E,_D]2 | [A,C]6 | [E,G,]2 [E,B,]2 [E,A,]2 | %25
 [E,G,]6 | [A,,A,]2 [A,,E,]2 [A,,A,]2 | [A,,A,]4 [A,,A,]2 | [C,A,]4 [D,A,]2 | [E,A,]4 [E,E]2 | %30
 =D2- [B,,D]2 [E,_D]2 | [A,C]6 |] %32
V:4
 x6 | x6 | x6 | x6 | x6 | x6 | x6 | x6 | x6 | x6 | x6 | x6 | x6 | x6 | A,2 z2 z2 | x6 | x6 | x6 | %18
 x6 | x6 | x6 | x6 | F,2 z2 z2 | x6 | x6 | x6 | x6 | x6 | x6 | x6 | F,2 z2 z2 | x6 |] %32

